X:1
T:Not Now, but By and By
T:Not Now, but By and By
T:John Robson Sweney
T:James Elliot, 1888
T:Public Domain Courtesy of the Cyber Hymnal™
T:Public Domain Courtesy of the Cyber Hymnal™
C:John Robson Sweney
Z:Public Domain
Z:Courtesy of the Cyber Hymnal™
%%score ( 1 2 ) ( 3 4 )
L:1/8
Q:1/4=95
M:6/8
K:D
V:1 treble 
V:2 treble 
V:3 bass 
V:4 bass 
V:1
 ([DF]/[EG]/) | [FA]2 [FA] [Fd]2 [Ac] | [GB]2 [FA] [DF]2 [DF] | [CE]2 [DF] [CA]2 [CG] | %4
w: 1.~I *|saw the reap- ers|one by one Their|sheaves in tri- umph|
w: 2.~“Dear *|Lord,” I said, “Thy|pre- cious words My|wan- ing strength re-|
w: 3.~“No *|more, no more, dear|Lord,” I said, “Will|I im- pa- tient|
 [DF]3- [DF]2 ([DF]/[EG]/) | [FA]2 [FA] [Fd]2 [Ad] | ([ce][Bd])[GB] [FA]2 [DF] | %7
w: bear; * I *|knew their la- bor|at * an end, And|
w: new; * But *|O, I grieve and|mourn * to think My|
w: be; * But *|through Thy grace I’ll|do * my work, And|
 [CE]2 [Ec] (dF)[D^G] | [CA]3- [CA]2 A | (cB)[GA] (AB)[Gc] | ([Fd][DF])[DB] [DA]2 D | =F2 E (DC)D | %12
w: prayed their joy * to|share; * “Be|thou * con- tent, * and|bide * thy time,” I|heard a voice * re-|
w: har- vest sheaves * are|few.” * “Toil|on,” * the same * sweet|voice * re- plied, “Thy|days are glid- * ing|
w: leave it all * with|Thee.” * Tho’|gath’r- * ing clouds * may|some- * times cast Dark|sha- dows o’er * the|
 [CA]3- [CA]2 [EG] | [DF]2 [GB] [FA]2 [Fd] | [Ge]2 [Gd] [GB]2 [GB] | (Ad)[DF] (AG)[CE] | D3- D2 || %17
w: ply; * “Thou|too shalt go where|they have gone, Not|now, * but by * and|by.” *|
w: by, * And|thou shalt join the|reap- ers’ song, Not|now, * but by * and|by.” *|
w: sky, * My|feet shall tread the|fields of light, Not|now, * but by * and|by. *|
"^Refrain" [Fd] | [Ec]3- [Ec]2 [GB] | [GB]2 [FA] [Fd]2 D | =F2 E (DC)D | [CA]3- [CA]2 [EG] | %22
w: |||||
w: “Not|now, * but|by and by,” I|heard a voice * re-|ply; * “There’s|
w: |||||
 [DF]2 [GB] [FA]2 [Fd] | [Ge]2 [Gd] [GB]2 [GB] | [FA]2 [Fd] (cB)[Gc] | [Fd]3- [Fd]2 |] %26
w: ||||
w: home and rest, and|joy for thee, Not|now, but by * and|by.” *|
w: ||||
V:2
 x | x6 | x6 | x6 | x6 | x6 | x6 | x3 D2 x | x5 A | G2 G2 x2 | x5 D | =F2 E DCD | x6 | x6 | x6 | %15
 F2 C2 x2 | D3- D2 || x | x6 | x5 D | =F2 E DCD | x6 | x6 | x6 | x3 G2 x | x5 |] %26
V:3
 [D,A,] | [D,D]2 [D,D] [D,A,]2 [D,D] | [D,D]2 [D,D] [D,A,]2 [D,A,] | A,2 [F,A,] [E,A,]2 [A,,A,] | %4
 [D,A,]3- [D,A,]2 [D,A,] | [D,D]2 [D,D] [D,A,]2 [F,D] | [G,D]2 [G,D] [D,D]2 [D,A,] | %7
 [E,A,]2 [E,A,] (^G,A,)[E,B,] | [A,,A,]3- [A,,A,]2 A, | (ED)[A,C] (CD)[A,E] | %10
 (DA,)[D,G,] [D,F,]2 D, | =F,2 E, D,C,D, | [A,,E,]3- [A,,E,]2 [A,,A,] | %13
 [D,A,]2 [D,D] [D,D]2 [D,=C] | [G,B,]2 [G,B,] [G,D]2 [G,D] | (DA,)[A,,A,] [A,,E,]2 [A,,G,] | %16
 [D,F,]3- [D,F,]2 || z | z2 A, A,2 [A,C] | [D,D]2 [D,D] [D,A,]2 D, | =F,2 E, D,C,D, | %21
 [A,,E,]3- [A,,E,]2 [A,,A,] | [D,A,]2 [D,D] [D,D]2 [D,=C] | [G,B,]2 [G,B,] [G,D]2 [G,D] | %24
 [A,D]2 A, [A,,A,]2 [A,,A,] | [D,A,]3- [D,A,]2 |] %26
V:4
 x | x6 | x6 | A,2 x4 | x6 | x6 | x6 | x3 E,2 x | x5 A, | A,2 A,2 x2 | D,2 x2 D, x | %11
 =F,2 E, (D,C,)D, | x6 | x6 | x6 | A,2 x4 | x5 || x | x2 A, A,2 x | x5 D, | =F,2 E, (D,C,)D, | x6 | %22
 x6 | x6 | x2 A, x3 | x5 |] %26

